X:642
M:C|
L:1/8
K:B_
f|gaba gfed|cBcd cGGf|gaba gfed|c>Bcd B/B/B ~Bf|gaba gfed|
c>Bcd cGGB|FGBc defg|fdcd B/B/B ~B||

